X:1
T:Major Molle's (of the 9th Regt. of Foot) Reel
T:Major Molle's (of the 9th Regt. of Foot) Reel
T:Andrew Gow (1760-1803)
C:Andrew Gow (1760-1803)
L:1/8
M:4/4
K:Bmin
V:1 treble 
V:1
 B(ff>)e dcB^A | B(ff>)e Td2 c2 | B(ff>)^g (a/g/f/g/) af | ecAc{f} e2 dc :| B>F F/F/F dBc^A | %5
 B>F F/F/F d2 cd | B>F F/F/F dBce | (cAA>)c{f} e2 dc | B>F F/F/F dBc^A | B>F F/F/F d2 cd | %10
 Bff>^g (a/g/f/g/) af | ecAc{f} e2 dc || %12

